assets/icons/phone.svg

<!DOCTYPE svg PUBLIC "-//W3C//DTD SVG 1.1//EN" "http://www.w3.org/Graphics/SVG/1.1/DTD/svg11.dtd">
<!-- Uploaded to: SVG Repo, www.svgrepo.com, Transformed by: SVG Repo Mixer Tools -->
<svg width="800px" height="800px" viewBox="0 0 24 24" fill="none" xmlns="http://www.w3.org/2000/svg">
<g id="SVGRepo_bgCarrier" stroke-width="0"/>
<g id="SVGRepo_tracerCarrier" stroke-linecap="round" stroke-linejoin="round"/>
<g id="SVGRepo_iconCarrier"> <path d="M16.1007 13.359L15.5719 12.8272H15.5719L16.1007 13.359ZM16.5562 12.9062L17.085 13.438H17.085L16.5562 12.9062ZM18.9728 12.5894L18.6146 13.2483L18.9728 12.5894ZM20.8833 13.628L20.5251 14.2869L20.8833 13.628ZM21.4217 16.883L21.9505 17.4148L21.4217 16.883ZM20.0011 18.2954L19.4723 17.7636L20.0011 18.2954ZM18.6763 18.9651L18.7459 19.7119H18.7459L18.6763 18.9651ZM8.81536 14.7266L9.34418 14.1947L8.81536 14.7266ZM4.00289 5.74561L3.2541 5.78816L3.2541 5.78816L4.00289 5.74561ZM10.4775 7.19738L11.0063 7.72922H11.0063L10.4775 7.19738ZM10.6342 4.54348L11.2346 4.09401L10.6342 4.54348ZM9.37326 2.85908L8.77286 3.30855V3.30855L9.37326 2.85908ZM6.26145 2.57483L6.79027 3.10667H6.79027L6.26145 2.57483ZM4.69185 4.13552L4.16303 3.60368H4.16303L4.69185 4.13552ZM12.0631 11.4972L12.5919 10.9654L12.0631 11.4972ZM16.6295 13.8909L17.085 13.438L16.0273 12.3743L15.5719 12.8272L16.6295 13.8909ZM18.6146 13.2483L20.5251 14.2869L21.2415 12.9691L19.331 11.9305L18.6146 13.2483ZM20.8929 16.3511L19.4723 17.7636L20.5299 18.8273L21.9505 17.4148L20.8929 16.3511ZM18.6067 18.2184C17.1568 18.3535 13.4056 18.2331 9.34418 14.1947L8.28654 15.2584C12.7186 19.6653 16.9369 19.8805 18.7459 19.7119L18.6067 18.2184ZM9.34418 14.1947C5.4728 10.3453 4.83151 7.10765 4.75168 5.70305L3.2541 5.78816C3.35456 7.55599 4.14863 11.144 8.28654 15.2584L9.34418 14.1947ZM10.7195 8.01441L11.0063 7.72922L9.9487 6.66555L9.66189 6.95073L10.7195 8.01441ZM11.2346 4.09401L9.97365 2.40961L8.77286 3.30855L10.0338 4.99296L11.2346 4.09401ZM5.73263 2.04299L4.16303 3.60368L5.22067 4.66736L6.79027 3.10667L5.73263 2.04299ZM10.1907 7.48257C9.66189 6.95073 9.66117 6.95144 9.66045 6.95216C9.66021 6.9524 9.65949 6.95313 9.659 6.95362C9.65802 6.95461 9.65702 6.95561 9.65601 6.95664C9.65398 6.95871 9.65188 6.96086 9.64972 6.9631C9.64539 6.96759 9.64081 6.97245 9.63599 6.97769C9.62634 6.98816 9.61575 7.00014 9.60441 7.01367C9.58174 7.04072 9.55605 7.07403 9.52905 7.11388C9.47492 7.19377 9.41594 7.2994 9.36589 7.43224C9.26376 7.70329 9.20901 8.0606 9.27765 8.50305C9.41189 9.36833 10.0078 10.5113 11.5343 12.0291L12.5919 10.9654C11.1634 9.54499 10.8231 8.68059 10.7599 8.27309C10.7298 8.07916 10.761 7.98371 10.7696 7.96111C10.7748 7.94713 10.7773 7.9457 10.7709 7.95525C10.7677 7.95992 10.7624 7.96723 10.7541 7.97708C10.75 7.98201 10.7451 7.98759 10.7394 7.99381C10.7365 7.99692 10.7335 8.00019 10.7301 8.00362C10.7285 8.00534 10.7268 8.00709 10.725 8.00889C10.7241 8.00979 10.7232 8.0107 10.7223 8.01162C10.7219 8.01208 10.7212 8.01278 10.7209 8.01301C10.7202 8.01371 10.7195 8.01441 10.1907 7.48257ZM11.5343 12.0291C13.0613 13.5474 14.2096 14.1383 15.0763 14.2713C15.5192 14.3392 15.8763 14.285 16.1472 14.1841C16.28 14.1346 16.3858 14.0763 16.4658 14.0227C16.5058 13.9959 16.5392 13.9704 16.5663 13.9479C16.5799 13.9367 16.5919 13.9262 16.6024 13.9166C16.6077 13.9118 16.6126 13.9073 16.6171 13.903C16.6194 13.9008 16.6215 13.8987 16.6236 13.8967C16.6246 13.8957 16.6256 13.8947 16.6266 13.8937C16.6271 13.8932 16.6279 13.8925 16.6281 13.8923C16.6288 13.8916 16.6295 13.8909 16.1007 13.359C15.5719 12.8272 15.5726 12.8265 15.5733 12.8258C15.5735 12.8256 15.5742 12.8249 15.5747 12.8244C15.5756 12.8235 15.5765 12.8226 15.5774 12.8217C15.5793 12.82 15.581 12.8183 15.5827 12.8166C15.5862 12.8133 15.5895 12.8103 15.5926 12.8074C15.5988 12.8018 15.6044 12.7969 15.6094 12.7929C15.6192 12.7847 15.6265 12.7795 15.631 12.7764C15.6403 12.7702 15.6384 12.773 15.6236 12.7785C15.5991 12.7876 15.501 12.8189 15.3038 12.7886C14.8905 12.7253 14.02 12.3853 12.5919 10.9654L11.5343 12.0291ZM9.97365 2.40961C8.95434 1.04802 6.94996 0.83257 5.73263 2.04299L6.79027 3.10667C7.32195 2.578 8.26623 2.63181 8.77286 3.30855L9.97365 2.40961ZM4.75168 5.70305C4.73201 5.35694 4.89075 4.9954 5.22067 4.66736L4.16303 3.60368C3.62571 4.13795 3.20329 4.89425 3.2541 5.78816L4.75168 5.70305ZM19.4723 17.7636C19.1975 18.0369 18.9029 18.1908 18.6067 18.2184L18.7459 19.7119C19.4805 19.6434 20.0824 19.2723 20.5299 18.8273L19.4723 17.7636ZM11.0063 7.72922C11.9908 6.7503 12.064 5.2019 11.2346 4.09401L10.0338 4.99295C10.4373 5.53193 10.3773 6.23938 9.9487 6.66555L11.0063 7.72922ZM20.5251 14.2869C21.3429 14.7315 21.4703 15.7769 20.8929 16.3511L21.9505 17.4148C23.2908 16.0821 22.8775 13.8584 21.2415 12.9691L20.5251 14.2869ZM17.085 13.438C17.469 13.0562 18.0871 12.9616 18.6146 13.2483L19.331 11.9305C18.2474 11.3414 16.9026 11.5041 16.0273 12.3743L17.085 13.438Z" fill="#ffffff"/> </g>
</svg>

<svg width="800" height="800" viewBox="0 0 24 24" fill="none" xmlns="http://www.w3.org/2000/svg">
    <path d="m16.1 13.359-.528-.532.529.532Zm.456-.453.529.532-.529-.532Zm2.417-.317-.358.66.358-.66Zm1.91 1.039-.358.659.358-.659Zm.539 3.255.529.532-.53-.532Zm-1.42 1.412-.53-.531.53.531Zm-1.326.67.07.747-.07-.747Zm-9.86-4.238.528-.532-.529.532ZM4.002 5.746l-.749.042.749-.042Zm6.474 1.451.53.532-.53-.532Zm.157-2.654.6-.449-.6.45ZM9.374 2.86l-.601.45.6-.45ZM6.26 2.575l.53.532-.53-.532Zm-1.57 1.56-.528-.531.529.532Zm7.372 7.362.529-.532-.529.532Zm4.566 2.394.456-.453-1.058-1.064-.455.453 1.058 1.064Zm1.986-.643 1.91 1.039.716-1.318-1.91-1.038-.716 1.317Zm2.278 3.103-1.42 1.413 1.057 1.063 1.42-1.412-1.057-1.064Zm-2.286 1.867c-1.45.136-5.201.015-9.263-4.023l-1.057 1.063c4.432 4.407 8.65 4.623 10.459 4.454l-.14-1.494Zm-9.263-4.023c-3.871-3.85-4.512-7.087-4.592-8.492l-1.498.085c.1 1.768.895 5.356 5.033 9.47l1.057-1.063Zm1.376-6.18.286-.286L9.95 6.666l-.287.285 1.057 1.063Zm.515-3.921L9.974 2.41l-1.201.899 1.26 1.684 1.202-.899ZM5.733 2.043l-1.57 1.56 1.058 1.064 1.57-1.56-1.058-1.064Zm4.458 5.44c-.53-.532-.53-.532-.53-.53h-.002l-.003.004a1.064 1.064 0 0 0-.127.157c-.054.08-.113.185-.163.318a2.099 2.099 0 0 0-.088 1.071c.134.865.73 2.008 2.256 3.526l1.058-1.064c-1.429-1.42-1.769-2.284-1.832-2.692-.03-.194.001-.29.01-.312.005-.014.007-.015 0-.006a.276.276 0 0 1-.03.039l-.01.01a.203.203 0 0 1-.01.009l-.53-.53Zm1.343 4.546c1.527 1.518 2.676 2.11 3.542 2.242.443.068.8.014 1.071-.087a1.536 1.536 0 0 0 .42-.236.923.923 0 0 0 .05-.045l.007-.006.003-.003.001-.002s.002-.001-.527-.533c-.53-.532-.528-.533-.528-.533l.002-.002.002-.002.006-.005.01-.01a.383.383 0 0 1 .038-.03c.01-.007.007-.004-.007.002-.025.009-.123.04-.32.01-.414-.064-1.284-.404-2.712-1.824l-1.058 1.064Zm-1.56-9.62C8.954 1.049 6.95.834 5.733 2.044L6.79 3.107c.532-.529 1.476-.475 1.983.202l1.2-.9ZM4.752 5.704c-.02-.346.139-.708.469-1.036L4.163 3.604c-.537.534-.96 1.29-.909 2.184l1.498-.085Zm14.72 12.06c-.274.274-.57.428-.865.455l.139 1.494c.735-.069 1.336-.44 1.784-.885l-1.058-1.063ZM11.006 7.73c.985-.979 1.058-2.527.229-3.635l-1.201.899c.403.539.343 1.246-.085 1.673l1.057 1.063Zm9.52 6.558c.817.444.944 1.49.367 2.064l1.058 1.064c1.34-1.333.927-3.557-.71-4.446l-.716 1.318Zm-3.441-.849c.384-.382 1.002-.476 1.53-.19l.716-1.317c-1.084-.59-2.428-.427-3.304.443l1.058 1.064Z" fill="#fff"/>
</svg>
